icons/svgs/leaf-solid.svg

<svg width="24" height="24" viewBox="0 0 24 24" fill="none" xmlns="http://www.w3.org/2000/svg">
<path d="M12.625 5.75H16.6875C18.3281 5.75 19.7734 4.85156 20.5156 3.44531C20.6719 3.21094 21.0625 3.21094 21.1406 3.44531C21.6875 4.89062 22 6.45312 22 8.13281C22 14.4219 17.8203 19.5 12.6641 19.5H12.625C9.42188 19.5 6.72656 17.3516 5.94531 14.3828C4.65625 15.5938 3.875 17.3125 3.875 19.1875V19.8125C3.875 20.3594 3.44531 20.75 2.9375 20.75C2.39062 20.75 2 20.3594 2 19.8125V19.1875C2 16.2578 3.48438 13.6797 5.75 12.1953C6.57031 11.6094 7.50781 11.2188 8.52344 10.9844C9.14844 10.8281 9.77344 10.75 10.4375 10.75H13.25H13.875C14.1875 10.75 14.5 10.4766 14.5 10.125C14.5 9.8125 14.1875 9.5 13.875 9.5H10.4375C8.83594 9.5 7.35156 9.89062 6.0625 10.5547C6.92188 7.78125 9.53906 5.75 12.625 5.75Z" fill="black"/>
</svg>

<svg xmlns="http://www.w3.org/2000/svg" width="24" height="24" fill="currentColor" class="icon-leaf-solid" viewBox="0 0 24 24">
  <mask id="a" width="20" height="18" x="2" y="3" maskUnits="userSpaceOnUse" style="mask-type:alpha">
    <path d="M12.625 5.75h4.063c1.64 0 3.085-.898 3.828-2.305.156-.234.547-.234.625 0 .547 1.446.859 3.008.859 4.688 0 6.289-4.18 11.367-9.336 11.367h-.039a6.88 6.88 0 0 1-6.68-5.117 6.58 6.58 0 0 0-2.07 4.805v.625c0 .546-.43.937-.937.937-.547 0-.938-.39-.938-.937v-.625a8.33 8.33 0 0 1 3.75-6.993c.82-.586 1.758-.976 2.773-1.21a7.8 7.8 0 0 1 1.915-.235h3.437a.64.64 0 0 0 .625-.625c0-.312-.312-.625-.625-.625h-3.437c-1.602 0-3.086.39-4.376 1.055a6.87 6.87 0 0 1 6.563-4.805"/>
  </mask>
  <g mask="url(#a)">
    <path d="M0 0h24v24H0z"/>
  </g>
</svg>
